assets/img/braze_icons/link-external-01.svg

<svg fill="none" height="24" viewBox="0 0 24 24" width="24" xmlns="http://www.w3.org/2000/svg"><g fill="#801ed7"><path d="m14 3c0-.55228.4477-1 1-1h6c.5523 0 1 .44771 1 1v6c0 .55228-.4477 1-1 1s-1-.44771-1-1v-3.58578l-6.2929 6.29288c-.3905.3905-1.0237.3905-1.4142 0s-.3905-1.0237 0-1.4142l6.2929-6.2929h-3.5858c-.5523 0-1-.44772-1-1z"/><path d="m7.7587 4h2.2413c.5523 0 1 .44772 1 1 0 .55229-.4477 1-1 1h-2.2c-.85658 0-1.43887.00078-1.88896.03755-.43842.03582-.66262.10075-.81902.18044-.37632.19174-.68229.49771-.87403.87403-.07969.1564-.14462.3806-.18044.81902-.03677.45009-.03755 1.03238-.03755 1.88896v6.4c0 .8566.00078 1.4389.03755 1.889.03582.4384.10075.6626.18044.819.19174.3763.49771.6823.87403.874.1564.0797.3806.1446.81902.1804.45009.0368 1.03238.0376 1.88896.0376h6.4c.8566 0 1.4389-.0008 1.889-.0376.4384-.0358.6626-.1007.819-.1804.3763-.1917.6823-.4977.874-.874.0797-.1564.1446-.3806.1804-.819.0368-.4501.0376-1.0324.0376-1.889v-2.2c0-.5523.4477-1 1-1s1 .4477 1 1v2.2413c0 .805 0 1.4693-.0442 2.0105-.0459.5621-.1445 1.0788-.3918 1.5642-.3835.7526-.9954 1.3645-1.748 1.748-.4854.2473-1.0021.3459-1.5642.3918-.5412.0442-1.2055.0442-2.0105.0442h-6.48262c-.80496 0-1.46931 0-2.0105-.0442-.5621-.0459-1.07881-.1445-1.56414-.3918-.75265-.3835-1.36457-.9954-1.74806-1.748-.2473-.4854-.34586-1.0021-.39179-1.5642-.04421-.5412-.0442-1.2055-.04419-2.0105v-6.4826c-.00001-.80496-.00002-1.46933.04419-2.01053.04593-.56209.14449-1.0788.39179-1.56413.38349-.75265.99541-1.36457 1.74806-1.74807.48533-.24729 1.00204-.34585 1.56414-.39178.54119-.04421 1.20555-.0442 2.01052-.04419z"/></g></svg>

<svg width="24" height="24" viewBox="0 0 24 24" fill="none" xmlns="http://www.w3.org/2000/svg">
<path d="M14 3C14 2.44772 14.4477 2 15 2H21C21.5523 2 22 2.44771 22 3L22 9C22 9.55228 21.5523 10 21 10C20.4477 10 20 9.55229 20 9L20 5.41422L13.7071 11.7071C13.3166 12.0976 12.6834 12.0976 12.2929 11.7071C11.9024 11.3166 11.9024 10.6834 12.2929 10.2929L18.5858 4H15C14.4477 4 14 3.55228 14 3Z" fill="#801ED7"/>
<path d="M7.7587 4L10 4C10.5523 4 11 4.44772 11 5C11 5.55229 10.5523 6 10 6H7.8C6.94342 6 6.36113 6.00078 5.91104 6.03755C5.47262 6.07337 5.24842 6.1383 5.09202 6.21799C4.7157 6.40973 4.40973 6.7157 4.21799 7.09202C4.1383 7.24842 4.07337 7.47262 4.03755 7.91104C4.00078 8.36113 4 8.94342 4 9.8V16.2C4 17.0566 4.00078 17.6389 4.03755 18.089C4.07337 18.5274 4.1383 18.7516 4.21799 18.908C4.40973 19.2843 4.7157 19.5903 5.09202 19.782C5.24842 19.8617 5.47262 19.9266 5.91104 19.9624C6.36113 19.9992 6.94342 20 7.8 20H14.2C15.0566 20 15.6389 19.9992 16.089 19.9624C16.5274 19.9266 16.7516 19.8617 16.908 19.782C17.2843 19.5903 17.5903 19.2843 17.782 18.908C17.8617 18.7516 17.9266 18.5274 17.9624 18.089C17.9992 17.6389 18 17.0566 18 16.2V14C18 13.4477 18.4477 13 19 13C19.5523 13 20 13.4477 20 14V16.2413C20 17.0463 20 17.7106 19.9558 18.2518C19.9099 18.8139 19.8113 19.3306 19.564 19.816C19.1805 20.5686 18.5686 21.1805 17.816 21.564C17.3306 21.8113 16.8139 21.9099 16.2518 21.9558C15.7106 22 15.0463 22 14.2413 22H7.75868C6.95372 22 6.28937 22 5.74818 21.9558C5.18608 21.9099 4.66937 21.8113 4.18404 21.564C3.43139 21.1805 2.81947 20.5686 2.43598 19.816C2.18868 19.3306 2.09012 18.8139 2.04419 18.2518C1.99998 17.7106 1.99999 17.0463 2 16.2413V9.7587C1.99999 8.95374 1.99998 8.28937 2.04419 7.74817C2.09012 7.18608 2.18868 6.66937 2.43598 6.18404C2.81947 5.43139 3.43139 4.81947 4.18404 4.43597C4.66937 4.18868 5.18608 4.09012 5.74818 4.04419C6.28937 3.99998 6.95373 3.99999 7.7587 4Z" fill="#801ED7"/>
</svg>
